svg/logout.svg

<?xml version="1.0" encoding="UTF-8"?>
<svg xmlns="http://www.w3.org/2000/svg" xmlns:xlink="http://www.w3.org/1999/xlink" width="32" height="32" viewBox="0 0 32 32">
<path fill-rule="nonzero" fill="rgb(0%, 0%, 0%)" fill-opacity="1" d="M 1.921875 0 C 0.863281 0.00390625 0.00390625 0.863281 0 1.921875 L 0 30.078125 C 0 31.136719 0.863281 32 1.921875 32 L 23.679688 32 C 24.742188 32 25.601562 31.140625 25.601562 30.078125 L 25.601562 24.417969 C 25.253906 24.71875 24.824219 24.898438 24.359375 24.898438 C 23.847656 24.894531 23.359375 24.6875 23 24.320312 C 22.640625 23.960938 22.4375 23.476562 22.4375 22.96875 C 22.4375 22.464844 22.640625 21.976562 23 21.621094 L 25.601562 19 L 25.601562 17.921875 L 10.878906 17.921875 C 9.820312 17.917969 8.960938 17.058594 8.960938 16 C 8.960938 14.941406 9.824219 14.078125 10.878906 14.078125 L 25.601562 14.078125 L 25.601562 13 L 23 10.378906 C 22.640625 10.027344 22.4375 9.542969 22.441406 9.039062 C 22.4375 8.53125 22.640625 8.039062 23 7.679688 C 23.359375 7.320312 23.847656 7.117188 24.359375 7.121094 C 24.824219 7.121094 25.253906 7.28125 25.601562 7.582031 L 25.601562 1.921875 C 25.597656 0.863281 24.738281 0.00390625 23.679688 0 Z M 24.359375 8.398438 C 24.1875 8.398438 24.023438 8.460938 23.898438 8.578125 C 23.78125 8.699219 23.710938 8.859375 23.710938 9.03125 C 23.710938 9.199219 23.78125 9.359375 23.898438 9.480469 L 29.78125 15.359375 L 10.878906 15.359375 C 10.527344 15.359375 10.238281 15.644531 10.238281 16 C 10.238281 16.355469 10.527344 16.640625 10.878906 16.640625 L 29.78125 16.640625 L 23.898438 22.519531 C 23.777344 22.636719 23.707031 22.800781 23.707031 22.972656 C 23.707031 23.140625 23.777344 23.304688 23.898438 23.421875 C 24.019531 23.546875 24.183594 23.617188 24.359375 23.621094 C 24.527344 23.621094 24.6875 23.546875 24.800781 23.421875 L 32.21875 16 L 24.800781 8.578125 C 24.683594 8.460938 24.523438 8.398438 24.359375 8.398438 "/>
</svg>

<svg role="img" viewBox="0 0 32 32" height="32" width="32" xmlns="http://www.w3.org/2000/svg"><path d="M1.922 0A1.93 1.93 0 0 0 0 1.922v28.156C0 31.137.863 32 1.922 32H23.68a1.922 1.922 0 0 0 1.922-1.922v-5.66c-.348.3-.778.48-1.243.48A1.92 1.92 0 0 1 23 24.32a1.903 1.903 0 0 1 0-2.699L25.602 19v-1.078H10.879A1.925 1.925 0 0 1 8.96 16c0-1.059.863-1.922 1.918-1.922h14.723V13L23 10.379a1.857 1.857 0 0 1-.559-1.34 1.908 1.908 0 0 1 1.918-1.918c.465 0 .895.16 1.243.461v-5.66A1.93 1.93 0 0 0 23.68 0Zm22.437 8.398a.67.67 0 0 0-.46.18.652.652 0 0 0-.188.453c0 .168.07.328.187.45l5.883 5.878H10.88a.641.641 0 0 0 0 1.282h18.9l-5.883 5.879a.63.63 0 0 0 0 .902.658.658 0 0 0 .461.2.599.599 0 0 0 .442-.2L32.219 16 24.8 8.578a.624.624 0 0 0-.442-.18"/></svg>
